fs/arrow_hook_up_right_20_filled.svg

<svg viewBox="0 0 20 20" fill="none" xmlns="http://www.w3.org/2000/svg" height="1em" width="1em">
  <path d="M9 6C9.06037 6 8.94015 5.99788 9 6C9.02294 5.99789 9.22651 6 9.25 6H13.6434L11.3754 3.73202C11.0825 3.43913 11.0825 2.96425 11.3754 2.67136C11.6683 2.37847 12.1432 2.37847 12.4361 2.67136L15.789 6.02427C15.963 6.19831 16.0337 6.43661 16.0009 6.6628C15.9821 6.82493 15.9106 6.98212 15.7862 7.10649L12.5391 10.3536C12.2462 10.6465 11.7714 10.6465 11.4785 10.3536C11.1856 10.0607 11.1856 9.5858 11.4785 9.29291L13.2714 7.5H9C7.067 7.5 5.5 9.067 5.5 11C5.5 12.933 7.067 14.5 9 14.5H13.25C13.6642 14.5 14 14.8358 14 15.25C14 15.6642 13.6642 16 13.25 16H9.25C9.22651 16 9 16 9 16C6.23858 16 4 13.7614 4 11C4 8.23858 6.23858 6 9 6Z" fill="#212121"/>
</svg>

<svg viewBox="0 0 20 20" fill="none" xmlns="http://www.w3.org/2000/svg" height="1em" width="1em">
  <path d="M9 6c.06 0-.06-.002 0 0 .023-.002.227 0 .25 0h4.393l-2.268-2.268a.75.75 0 1 1 1.061-1.06l3.353 3.352a.749.749 0 0 1 .212.639.747.747 0 0 1-.215.443l-3.247 3.248a.75.75 0 1 1-1.06-1.061L13.27 7.5H9a3.5 3.5 0 1 0 0 7h4.25a.75.75 0 0 1 0 1.5H9A5 5 0 0 1 9 6Z" fill="#212121"/>
</svg>
